X:77
T:Wett & weary. Ru1.077
%%VWML:RutherfordVol1-2248-p39-0p39
Z:Transcription by Village Music Project, Steve Mansfield July 2015
F:http://www.village-music-project.org.uk/
F:http://www.vwml.org/record/RutherfordVol1/2248/p39
M:6/8
Q:3/8=100
K:G
Bdd gdd|eBB aAA|Bdd g2f|edc BGG :|
|: (B/c/d)B c2A|(B/c/)dB eAA|(B/c/d)B c2A|Bdg BGG :|
W:
W: Cast off one Couple .|  Cast off
W: another Couple :|  Lead up to the
W: top, foot it and Cast off :||:  Hands
W: across half round with the second
W: Couple .||  The same back again :||  Right
W: Hand and Left quite round with the 2d.
W: Couple.
T:Jack Holme's Reel. Ru1.078
L:1/8
R:Reel
B:RUTHERFORD Complete Collection of 200 Country Dances Vol.1; London: David & John Rutherford 1756.
Z:vmp.Mike Hicken 2015 www.village-music-project.org.uk
M:6/8
Q:3/8=110
K:D
e|c2e- e(f/^g/a)|cAe e2d|c2e- e(e/f/g)|BGB d2B|
c2e- ef/^g/a|ece aeg|fdf ece|BGB d2 :|
|: f|acA ecA|acA Te2c|acA ecA|BGB d2B|
acA ecA|acA efg|fdf ece|BGB d2 |]
W:
W: Cross over two Couple .|  Lead up to the top foot
W: it and Cast off :|  foot it Corners and turn .|.  foot
W: it the other Corners and turn your own partner :|
|:
